X:1
T:Dominion Reel
L:1/8
M:C|
K:C
G2 | "C"c2 c2 "G"BcdB | "C"cega gece | "F"f2 fd "C" e2ec | "G" dcBA GABG|
"C"c2 c2 "G"BcdB | "C"cega gece | "F"f2 fd "C" e2ec | "G" dcBd "C"c2:|
|:G2 | "C"cege cege | "G" defe dcBd| "C"cege cege | "D7"dg^fa "G"g2g2|
 "C"cege cege | "F" f2 fe dcBA| "G"GABc defg | ecdB "C"c2:|
